!!!COM: Scriabin, Alexander
!!!OTL@@FR: Mazurka en mi majeur
!!!OTL@@EN: Mazurka in E Major
!!!OPR@@FR: 9 Mazurkas
!!!OPR@@EN: 9 Mazurkas
!!!OPS: 25
!!!ONM: 4
!!!ODT: 1899
!!!AGN: Mazurka
**kern	**kern	**dynam
*staff2	*staff1	*staff1/2
*Ipiano	*Ipiano	*
*clefF4	*clefG2	*
*k[f#c#g#d#]	*k[f#c#g#d#]	*
*E:	*E:	*
*M3/4	*M3/4	*
=1	=1	=1
*^	*	*
[2.BB	4r	8r	p
.	.	8B	.
*	*	*^	*
.	4r	[2e	8eL	.
.	.	.	8f#J	.
.	[4A	.	8cc#L	.
.	.	.	16r	.
.	.	.	16g#Jk	.
=2	=2	=2	=2	=2
2BB]	4A]	4e]	4b	.
.	[2A	8r	8c#L	.
.	.	[4.d#	8d#	.
4BB	.	.	8g#	.
.	.	.	8f#J	.
=3	=3	=3	=3	=3
2C#	4A]	8d#L]	8f#L	<
.	.	8eJ	8eJ	(
.	4G#	4e	4.b	(
4GG#	4E	4B	.	(
.	.	.	8d#	[
=4	=4	=4	=4	=4
4r	[2.E	2.B	2d#	>
4GG#	.	.	.	)
4GGn	.	.	[4c#	]
=5	=5	=5	=5	=5
4FF#	4E]	4r	8c#L]	.
.	.	.	8f#	.
4r	4r	[2b	8b	.
.	.	.	8cc#J	.
[4F#	[4e	.	8gg#L	.
.	.	.	16r	.
.	.	.	16dd#Jk	.
!!LO:LB:g=original
=6	=6	=6	=6	=6
2F#]	4e]	4b]	4ff#	.
.	[2e	8r	8g#L	.
.	.	[4.a#	8a#X	.
4F#	.	.	8dd#	.
.	.	.	8cc#J	.
=7	=7	=7	=7	=7
2G#	4e]	8a#L]	8cc#L	<
.	.	8bJ	8bJ	(
.	4d#	4b	4.ff#	(
4D#	4B	4f#	.	(
.	.	.	8a#X	[
=8	=8	=8	=8	=8
4r	2.B	2.f#	2a#X	>
4D#	.	.	.	)
4Dn	.	.	[4g#	]
*	*	*v	*v	*
=9	=9	=9	=9
*	*^	*	*
2.C#\	8BL	2f#	8g#L]	.
.	8A#XJ	.	8a#X	.
.	4G#	.	8b	.
.	.	.	8dd#J	<
.	4B	4e	12eeL	(
.	.	.	12aa#X	(
.	.	.	12gg#J	[
=10	=10	=10	=10	=10
2.F#\	4B	2.e	8ff#L	>
.	.	.	8b	)
.	4A#X	.	8dd#	]
.	.	.	8cc#	.
.	4An	.	8g#	.
.	.	.	[8f#J	.
!!LO:LB:g=original
=11	=11	=11	=11	=11
2.BB\	8AL	2e	8f#L]	.
.	8G#J	.	8g#	.
.	4F#	.	8a	.
.	.	.	8cc#J	.
.	4A	4dn	12ddnL	<
.	.	.	12gg#	(
.	.	.	24r	(
.	.	.	24ff#Jk	[
=12	=12	=12	=12	=12
2.E\	4A	2.dn	8eeL	<
.	.	.	8a	.
.	4G#	.	8cc#	.
.	.	.	8e	.
.	8F##XL	.	8b	.
.	8G#J	.	8b#XJ	.
=13	=13	=13	=13	=13
2.AA\	16%3G#	4.c#	[2.cc#	mf
.	16%3A	.	.	.
.	16%3G#	4.e	.	.
.	16%3Gn	.	.	.
=14	=14	=14	=14	=14
4rFF	2.F#	4re	8cc#L]	.
.	.	.	8e	>
4rFF	.	2e	8f#	.
.	.	.	8cc#	.
4AA#X\	.	.	8ff#	.
.	.	.	8dd#J	.
*	*v	*v	*	*
*v	*v	*	*
=15	=15	=15
2.BB 2.An 2.e	8cc#L	.
.	8b	.
.	8ee	.
.	8ff#	.
.	8ddd#	.
.	8ccc#J	.
!!LO:LB:g=original
=16	=16	=16
2.BB 2.F# 2.e	8bbL	.
.	8cc#	.
.	8aa	.
.	8gg#J	.
.	12ff#L	>
.	12ee	)
.	12cc#J	]
=17	=17	=17
*^	*	*
[2.BB	4r	8r	p
.	.	8B	.
*	*	*^	*
.	4r	[2e	8eL	.
.	.	.	8f#J	.
.	[4A	.	8cc#L	.
.	.	.	16r	.
.	.	.	16g#Jk	.
=18	=18	=18	=18	=18
2BB]	4A]	4e]	4b	.
.	[2A	8r	8c#L	.
.	.	[4.d#	8d#	.
4BB	.	.	8g#	.
.	.	.	8f#J	.
=19	=19	=19	=19	=19
2C#	4A]	8d#L]	8f#L	<
.	.	8eJ	8eJ	(
.	4G#	4e	4.b	(
4GG#	4E	4B	.	(
.	.	.	8d#	[
=20	=20	=20	=20	=20
4r	[2.E	2.B	2d#	>
4GG#	.	.	.	)
4GGn	.	.	[4c#	]
!!LO:LB:g=original
=21	=21	=21	=21	=21
4FF#	4E]	4r	8c#L]	.
.	.	.	8f#	.
4r	4r	[2b	8b	.
.	.	.	8cc#J	.
[4F#	[4e	.	8gg#L	.
.	.	.	16r	.
.	.	.	16dd#Jk	.
=22	=22	=22	=22	=22
2F#]	4e]	4b]	4ff#	.
.	[2e	8r	8g#L	.
.	.	[4.a#	8a#X	.
4F#	.	.	8dd#	.
.	.	.	8cc#J	.
=23	=23	=23	=23	=23
2G#	4e]	8a#L]	8cc#L	<
.	.	8bJ	8bJ	(
.	4d#	4b	4.ff#	(
4D#	4B	4f#	.	(
.	.	.	8a#X	[
=24	=24	=24	=24	=24
4r	2.B	2.f#	2a#X	>
4D#	.	.	.	)
4Dn	.	.	[4g#	]
*	*	*v	*v	*
=25	=25	=25	=25
*	*^	*	*
2.C#\	8BL	2f#	8g#L]	.
.	8A#XJ	.	8a#X	.
.	4G#	.	8b	.
.	.	.	8dd#J	.
.	4B	4e	12eeL	<
.	.	.	12aa#X	(
.	.	.	12gg#J	[
!!LO:LB:g=original
=26	=26	=26	=26	=26
2.F#\	4B	2.e	8ff#L	>
.	.	.	8b	)
.	4A#X	.	8dd#	)
.	.	.	8cc#	]
.	4An	.	8g#	.
.	.	.	[8f#J	.
=27	=27	=27	=27	=27
2.BB\	8AL	2e	8f#L]	.
.	8G#J	.	8g#	.
.	4F#	.	8a	.
.	.	.	8cc#J	.
.	4A	4dn	12ddnL	.
.	.	.	12gg#	.
.	.	.	24r	.
.	.	.	24ff#Jk	.
=28	=28	=28	=28	=28
2.E\	4A	2.dn	8eeL	<
.	.	.	8a	.
.	4G#	.	8cc#	.
.	.	.	8e	.
.	8F##XL	.	8b	.
.	8G#J	.	8b#XJ	.
=29	=29	=29	=29	=29
2.AA\	4rc	4rc	[2.cc#	f
.	4A	2c#	.	.
.	4E	.	.	.
=30	=30	=30	=30	=30
4rFF	2.D#	4rc	8cc#L]	.
.	.	.	8c#	.
4rFF	.	2c#	8d#	.
.	.	.	8f##X	.
4AA\	.	.	8dd#	.
.	.	.	8cc#J	.
*	*v	*v	*	*
*v	*v	*	*
!!LO:LB:g=original
=31	=31	=31
2.GG# 2.D# 2.c#	8aL	.
.	8g#	.
.	8cc#	>
.	8dd#	.
.	8bb	.
.	8aaJ	.
=32	=32	=32
2.G# 2.B#X	8gg#L	.
.	8ddn	.
.	8ee	.
.	8dd#X	>
.	8f##X	)
.	8g#J	]
=33	=33	=33
*^	*	*
[2.F#	4r	8r	p
.	.	8c#	.
.	4r	4.b	.
.	[4c#	.	.
.	.	8a	.
=34	=34	=34	=34
*	*	*^	*
2.F#]	4c#]	4r	8g#L	<
.	.	.	[8a	(
.	4f#	2a]	8b	[
.	.	.	8cc#	.
.	4c#	.	8ee#X	>
.	.	.	8ff#J	]
*	*	*v	*v	*
=35	=35	=35	=35
[2.En\	4r	8r	.
.	.	8cc#	.
.	8r	4.bb	.
*	*^	*	*
.	[4.c#	8c#	.	.
.	.	8g#L	.	.
.	.	[8f#J	8aa	.
!!LO:LB:g=original
=36	=36	=36	=36	=36
2.E\]	4c#]	2f#]	8gg#L	.
.	.	.	8aa	<
.	4A	.	8bb	(
.	.	.	8ccc#	[
.	4c#	4a	8eee#X	>
.	.	.	8fff#J	]
*	*v	*v	*	*
*v	*v	*	*
=37	=37	=37
*	*8va	*
4D#	8cccc#L	.
.	8bbbJ	.
4B 4a	4ggg#	.
4r	4fff#	.
*	*X8va	*
=38	=38	=38
4E	8ccc#L	.
.	8bbJ	.
4B 4a	4ff#	.
4r	4ee	.
=39	=39	=39
4D#	8cc#L	.
.	8bJ	.
4B 4a	4g#	.
4r	[4f#	.
=40	=40	=40
*^	*	*
2.Dn	4r	8f#L]	.
.	.	8g#	.
*	*^	*	*
.	2B#X	8r	8a	.
.	.	8g#	8ee#X	.
.	.	8e#XL	8gg#	.
.	.	8f#J	8ff#J	.
=41	=41	=41	=41	=41
[2.C#\	4c#	4c#	8r	p
.	.	.	8A	.
.	[2A	[2en	4.g#	.
.	.	.	8f#	.
!!LO:LB:g=original
=42	=42	=42	=42	=42
2.C#\]	4A]	2.e]	8e#XL	<
.	.	.	8f#	(
.	2F#	.	8g#	(
.	.	.	8a	[
.	.	.	8een	>
.	.	.	8ff#J	]
=43	=43	=43	=43	=43
[2.Cn\	4rc	4rc	8r	.
.	.	.	8a	.
.	[2A	[2e	4.gg#	.
.	.	.	8ff#	.
=44	=44	=44	=44	=44
2.C\]	4A]	2.e]	8ee#XL	<
.	.	.	8ff#	(
.	2F#	.	8gg#	(
.	.	.	8aa	[
.	.	.	8aaa	>
.	.	.	8ggg#J	]
*	*v	*v	*	*
=45	=45	=45	=45
2Cn	4r	8ggg#L	.
.	.	8fff#J	.
.	4F# 4e	4bb	.
4rFF	4rc	4aa#X	.
=46	=46	=46	=46
2BB	4r	8gg#L	.
.	.	8ff#J	.
.	4F# 4e	4cc#	.
4rFF	4rc	4b	.
=47	=47	=47	=47
2AA#X	4r	8g#L	.
.	.	8f#J	.
.	2F# 2e	4c#	.
4rFF	.	[4B#X	.
!!LO:LB:g=original
=48	=48	=48	=48
2AAn	2.F# 2.e	8B#L]	.
.	.	8c#	.
.	.	8d#	.
.	.	8c#	.
4AA#X	.	8g#	.
.	.	8f#J	.
=49	=49	=49	=49
[2.BB	4r	8r	p
.	.	8Bn	.
*	*	*^	*
.	4r	[2e	8eL	.
.	.	.	8f#J	.
.	[4A	.	8cc#L	.
.	.	.	16r	.
.	.	.	16g#Jk	.
=50	=50	=50	=50	=50
2BB]	4A]	4e]	4b	.
.	[2A	8r	8c#L	.
.	.	[4.d#	8d#	.
4BB	.	.	8g#	.
.	.	.	8f#J	.
=51	=51	=51	=51	=51
2C#	4A]	8d#L]	8f#L	.
.	.	8eJ	8eJ	<
.	4G#	4e	4.b	(
4GG#	4E	4B	.	(
.	.	.	8d#	[
=52	=52	=52	=52	=52
4r	[2.E	2.B	2d#	>
4GG#	.	.	.	)
4GGn	.	.	[4c#	]
!!LO:LB:g=original
=53	=53	=53	=53	=53
4FF#	4E]	4r	8c#L]	.
.	.	.	8f#	.
4r	4r	[2b	8b	.
.	.	.	8cc#J	.
[4F#	[4e	.	8gg#L	.
.	.	.	16r	.
.	.	.	16dd#Jk	.
=54	=54	=54	=54	=54
2F#]	4e]	4b]	4ff#	.
.	[2e	8r	8g#L	.
.	.	[4.a#	8a#X	.
4F#	.	.	8dd#	.
.	.	.	8cc#J	.
=55	=55	=55	=55	=55
2G#	4e]	8a#L]	8cc#L	.
.	.	8bJ	8bJ	<
.	4d#	4b	4.ff#	(
4D#	4B	4f#	.	(
.	.	.	8a#X	[
=56	=56	=56	=56	=56
4r	2.B	2.f#	2a#X	>
4D#	.	.	.	)
4Dn	.	.	[4g#	]
*	*	*v	*v	*
=57	=57	=57	=57
*	*^	*	*
2.C#\	8BL	2f#	8g#L]	.
.	8A#XJ	.	8a#X	.
.	4G#	.	8b	.
.	.	.	8dd#J	<
.	4B	4e	12eeL	(
.	.	.	12aa#X	(
.	.	.	12gg#J	[
!!LO:LB:g=original
=58	=58	=58	=58	=58
2.F#\	4B	2.e	8ff#L	>
.	.	.	8b	)
.	4A#X	.	8dd#	)
.	.	.	8cc#	]
.	4An	.	8g#	.
.	.	.	[8f#J	.
=59	=59	=59	=59	=59
2.BB\	8AL	2e	8f#L]	.
.	8G#J	.	8g#	.
.	4F#	.	8a	.
.	.	.	8cc#J	.
.	4A	4dn	12ddnL	.
.	.	.	12gg#	.
.	.	.	12ff#J	.
=60	=60	=60	=60	=60
2.E\	4A	2.dn	8eeL	<
.	.	.	8a	.
.	4G#	.	8cc#	.
.	.	.	8e	.
.	8F##XL	.	8b	.
.	8G#J	.	8b#XJ	.
=61	=61	=61	=61	=61
2.AA\	16%3G#	4.c#	[2.cc#	f
.	16%3A	.	.	.
.	16%3G#	4.e	.	.
.	16%3Gn	.	.	.
=62	=62	=62	=62	=62
4rFF	2.F#	4re	8cc#L]	.
.	.	.	8e	.
4rFF	.	2e	8f#	.
.	.	.	8cc#	.
4AA#X\	.	.	8ff#	>
.	.	.	8eeJ	]
!!LO:LB:g=original
=63	=63	=63	=63	=63
4rFF	[2.F#	4re	8r	.
.	.	.	8eL	>
4rFF	.	[2e	8f#	.
.	.	.	8ccn	.
[4AA#X\	.	.	8ff#	.
.	.	.	8eeJ	.
*	*v	*v	*	*
=64	=64	=64	=64
2.AA#] 2.F#]	2.e]	8ff#L	.
.	.	8cccn	.
.	.	8fff#	.
.	.	8eee	.
.	.	8ff#	.
.	.	8eeJ	.
=65	=65	=65	=65
[2.BB	4r	8r	mp
.	.	8b	.
.	4r	8eeL	.
.	.	8ff#J	.
.	[4An [4e	8ccc#XL	.
.	.	16r	.
.	.	16gg#Jk	.
=66	=66	=66	=66
4BB]	4A] 4e]	4bb	.
2BB	4r	8cc#L	.
.	.	8dd#	.
.	4A 4d#	8gg#	.
.	.	8ff#J	.
=67	=67	=67	=67
2.BB	4r	8ff#L	.
.	.	8eeJ	<
.	4G# 4e 4g#	4.bb	(
.	4G# 4e 4g#	.	(
.	.	8dd#	[
!!LO:LB:g=original
=68	=68	=68	=68
2.BBn	4r	2dd#	>
.	4F# 4e 4a#X	.	)
.	4F# 4e 4a#	4cc#	]
=69	=69	=69	=69
[2.BB	4r	8r	pp
.	.	8bL	.
.	4r	8ee	.
.	.	8ff#	.
.	[4An [4e	8ccc#	.
.	.	8gg#	.
=70	=70	=70	=70
4BB]	4A] 4e]	8bbJ	.
.	.	8f#L	.
4rAA	4rc	8b	.
.	.	8cc#	.
4BB	4A 4d#	8gg#	.
.	.	8dd#	.
=71	=71	=71	=71
4BBB	4r	8ff#J	.
.	.	8BL	.
[2BB	4r	8e	.
.	.	8g#	.
.	[4G#	8ee	.
.	.	8dd#J	.
=72	=72	=72	=72
*	*^	*	*
2BB\]	4G#/]	2.e	8cc#L	.
.	.	.	8b	.
.	4.c#/	.	8e	.
.	.	.	8f#J	.
4BB\	.	.	4g#	.
.	8B/	.	.	.
!!LO:LB:g=original
=73	=73	=73	=73	=73
[2.C#\	4B	4ra	8r	.
.	.	.	8eL	.
.	4A#X	[2e	8f#	<
.	.	.	8a#X	(
.	4G#	.	8ee	(
.	.	.	8ff#J	[
*	*v	*v	*	*
=74	=74	=74	=74
2.C#] 2.A#X	2.e]	8ddd#L	.
.	.	8ccc#	.
.	.	8aa#X	>
.	.	8ee#X	]
.	.	8gg#	<
.	.	8ff#J	.
=75	=75	=75	=75
*	*^	*	*
[2.D#\	4c#	4ra	8r	.
.	.	.	8f#L	.
.	4B#X	[2f#	8g#	<
.	.	.	8b#X	(
.	4A#X	.	8ff#	(
.	.	.	8gg#J	[
*	*v	*v	*	*
=76	=76	=76	=76
2.D#] 2.B#X	2.f#]	8eeeL	.
.	.	8ddd#	.
.	.	8bb#X	>
.	.	8ff##X	)
.	.	8aan	)
.	.	8gg#J	]
=77	=77	=77	=77
*	*^	*^	*
2.E\	2c#	4e	4r	8r	<
.	.	.	.	4ccc#	.
.	.	2g#	2cc#	.	.
.	.	.	.	8bbn	.
.	4G#	.	.	4aa#X	.
*	*v	*v	*	*	*
!!LO:LB:g=original
=78	=78	=78	=78	=78
2.E\	4r	4r	8r	.
.	.	.	4gg#	.
*	*^	*	*	*
.	2c#	8r	2cc#	.	.
.	.	8a#X	.	8ff##X	.
.	.	8f##XL	.	8aa#XL	.
.	.	8g#J	.	8gg#J	.
*	*	*	*v	*v	*
*	*v	*v	*	*
=79	=79	=79	=79
2D#	4r	8r	<
.	.	8gg#L	.
*	*^	*	*
.	4.B	2g#	8cc##X	.
.	.	.	8ee	.
4F#X\	.	.	8dd#	.
.	8d#	.	8bJ	.
*	*v	*v	*	*
*v	*v	*	*
=80	=80	=80
*	*^	*
*	*	*^	*
8r	2.c#X\	4.g#	4.b	.
8F#L	.	.	.	.
8D#	.	.	.	.
8F#	.	4g#	4.a#X	.
8E	.	.	.	.
8D#J	.	8f##X	.	.
*	*	*v	*v	*
*	*v	*v	*
=81||	=81||	=81||
*k[f#c#g#d#a#]	*k[f#c#g#d#a#]	*
4GGG# 4GG#	8B 8d# 8g#	f
*	*^	*
.	8r	4gg#	.
*^	*	*	*
8EL 8e	4B	4g#	.	.
8D#J 8d#	.	.	8ff#X	.
4D# 4d#	4G#	4g#	8a#L	.
.	.	.	8bJ	.
*v	*v	*	*	*
=82	=82	=82	=82
4r	4r	2ee	.
*^	*	*	*
4C##X 4c##X	4B	4g#	.	.
4D# 4d#	4B	4g#	4dd#	.
*v	*v	*	*	*
!!LO:LB:g=original
=83	=83	=83	=83
4GGG# 4GG#	4r	8r	.
.	.	4ee	.
4F# 4B#X 4f#	4g#	.	.
.	.	8dd#	.
4E 4c#X 4e	4r	8f##XL	.
.	.	8g#J	.
=84	=84	=84	=84
4r	4r	2cc#	.
*^	*	*	*
4E 4e	2G#	4c#	.	.
4D# 4d#	.	4d#	4bn	.
*v	*v	*	*	*
=85	=85	=85	=85
4CC# 4C#	2.e	8r	.
.	.	8g#	.
2C# 2B	.	12g#L	.
.	.	12a#	.
.	.	12g#J	.
.	.	8f##XL	.
.	.	8g#J	.
*	*v	*v	*
=86	=86	=86
4C#	8.eeL	.
.	16dd#Jk	.
4B 4g#	4.ff#X	.
4r	.	.
.	8ee	.
=87	=87	=87
4E	4.dd#	.
*^	*	*
4B	2g#	.	.
.	.	8g#	.
4A#	.	8dd#L	.
.	.	8cc#J	.
*v	*v	*	*
=88	=88	=88
4D#	2b	>
*^	*	*
2c#	4g#	.	)
.	4f##X	4a#	]
*v	*v	*	*
!!LO:LB:g=original
=89	=89	=89
4GGG# 4GG#	8B 8d# 8g#	.
*	*^	*
.	8r	4gg#	f
*^	*	*	*
8EL 8e	4B	4g#	.	.
8D#J 8d#	.	.	8ff#X	.
4D# 4d#	4G#	4g#	8a#L	.
.	.	.	8bJ	.
*v	*v	*	*	*
=90	=90	=90	=90
4r	8r	2ee	.
.	4cc#	.	.
4C##X 4G# 4c##X	.	.	.
.	8b	.	.
4D# 4B 4d#	8f##XL	4dd#	.
.	8g#J	.	.
=91	=91	=91	=91
4GGG# 4GG#	4r	8r	.
.	.	4ee	.
4F# 4B#X 4f#	4g#	.	.
.	.	8dd#	.
4E 4c#X 4e	4r	8f##XL	.
.	.	8g#J	.
=92	=92	=92	=92
4r	8r	2cc#	.
.	4a#	.	.
*^	*	*	*
4.E 4.e	4c#	.	.	.
.	.	8g#	.	.
.	4G#	8c##XL	4bn	.
8D# 8d#	.	8d#J	.	.
*v	*v	*	*	*
=93	=93	=93	=93
4CC#X 4C#X	4f#	8r	.
.	.	8g#	.
2C# 2B	4e	12g#L	.
.	.	12a#	.
.	.	12g#J	.
.	4r	8f##XL	.
.	.	8g#J	.
*	*v	*v	*
!!LO:LB:g=original
=94	=94	=94
4C#	8.eeL	.
.	16dd#Jk	.
4B 4g#	4.ff#X	.
4r	.	.
.	8ff#	.
=95	=95	=95
4G#	4.ff#	.
*^	*	*
4d#	2b	.	.
.	.	8b	.
4c#	.	8ff#L	.
.	.	8eeJ	.
*v	*v	*	*
=96	=96	=96
4F#	2dd#	.
*^	*	*
2e	4b	.	.
.	4a#	4cc#	.
*v	*v	*	*
=97	=97	=97
*	*^	*
4BB	4r	8r	p
.	.	8ff#	.
2F# 2e	2f#	4.b	.
.	.	8cc#	.
=98	=98	=98	=98
4BB	4r	8r	.
.	.	8ff#	.
*^	*	*	*
2F#	4d#	2a#	4.dd#	.
.	4c#	.	.	.
.	.	.	8ee	.
=99	=99	=99	=99	=99
[2.BB	4r	4r	12gg#L	.
.	.	.	12a#	.
.	.	.	12cc#J	.
.	[2F# [2e	[2a#	8gg#L	<
.	.	.	8ff#	(
.	.	.	8b#X	(
.	.	.	8cc#J	[
!!LO:LB:g=original
=100	=100	=100	=100	=100
2BB] 2F#]	4.e]	4.a#]	8eeL	>
.	.	.	8dd#	)
.	.	.	8cc#	)
.	8d#	8bn	8b	]
4rAA	4rc	4r	8g#	.
.	.	.	8d#J	.
*v	*v	*	*	*
=101	=101	=101	=101
4BBB	4r	8r	pp
.	.	8f#	.
4E	2F#	4.B	.
4FF#	.	.	.
.	.	8c#	.
=102	=102	=102	=102
4BBB	4r	8r	.
.	.	8f#	.
4C#	2A#	4.d#	.
[4FF#	.	.	.
.	.	8e	.
=103	=103	=103	=103
2.FF#] 2.E	12r	12g#L	.
.	[6A#	12A#	.
.	.	12c#J	.
.	2A#]	8g#L	.
.	.	8f#	.
.	.	8B#X	.
.	.	8c#J	.
=104	=104	=104	=104
*^	*	*	*
[2BB	2G#	2.Bn	2e	.
8BB]	8F#	.	4d#	.
*v	*v	*	*	*
8BBB 8BB	.	.	.
!!LO:LB:g=original
=105	=105	=105	=105
*^	*	*	*
4BB	8E#XL	4re	12dd#L	p
.	.	.	12d#	.
.	8F#J	.	.	.
.	.	.	12anJ	.
4BB	4An	4d# 4f#	8cc#L	.
.	.	.	8b	.
*v	*v	*	*	*
4BBB 4BB	4An 4d#	8e#X	<
.	.	8f#J	.
=106	=106	=106	=106
[2BBB#X [2BB#X	4An 4d#	4.an	.
.	4A 4d#	.	.
.	.	8g#	.
8BBB#L] 8BB#]	4A 4d#	8g#L	.
8CC#J 8C#	.	8f#J	.
=107	=107	=107	=107
*^	*	*	*
4C#	8F##XL	4re	12ee#XL	<
.	.	.	12e#X	.
.	8G#J	.	.	.
.	.	.	12bJ	.
4C#	4B	4e#	8ddnL	.
.	.	.	8cc#	.
*v	*v	*	*	*
4CC# 4C#	4B 4e#	8f##X	.
.	.	8g#J	.
=108	=108	=108	=108
[2CC##X [2C##X	4B 4e#X	4.b	.
.	4B 4e#	.	.
.	.	8a#X	.
8CC##L] 8C##]	4B 4e#	8a#L	.
8DD#J 8D#	.	8g#J	.
=109	=109	=109	=109
*^	*	*	*
4D#	8G##XL	4re	12ff##XL	<
.	.	.	12f##X	.
.	8A#J	.	.	.
.	.	.	12cc#J	.
4.D#	4.c#X	4.f## 4.a#	8.eenL	.
.	.	.	16dd#Jk	.
.	.	.	8dd#	.
*v	*v	*	*	*
8DD# 8D#	8r	8r	.
!!LO:LB:g=original
=110	=110	=110	=110
*^	*	*	*
4D#	8A#L	4re	12gg#L	.
.	.	.	12g#	.
.	8BJ	.	.	.
.	.	.	12cc##XJ	.
4.D#	4.c##X	4.g# 4.b	8.ff#XL	.
.	.	.	16eeJk	.
.	.	.	8ee	.
*v	*v	*	*	*
8DD# 8D#	8r	8r	.
=111	=111	=111	=111
*^	*	*	*
4D#	8BL	4re	12aanL	<
.	.	.	12an	.
.	8B#XJ	.	.	.
.	.	.	12dd#J	.
4.D#	4.d#	4.a 4.b#X	8.ff#L	.
.	.	.	16ee#XJk	.
.	.	.	8ee#	.
*v	*v	*	*	*
8DD# 8D#	8r	8r	.
=112	=112	=112	=112
*^	*	*	*
4D#	8B#XL	4re	12aa#XL	.
.	.	.	12a#X	.
.	8c#J	.	.	.
.	.	.	12cc#J	.
4D# 4c#	8f#L	4a#X 4cc#	8eenL	.
.	8e#X	.	8ee#X	.
4D# 4c#	8en	4a# 4cc#	8ff#	.
.	8d#J	.	8ff##XJ	.
*v	*v	*	*	*
=113	=113	=113	=113
4GGG# 4GG#	4re	8r	ff
.	.	4gg#	.
*^	*	*	*
8EL 8e	4Bn	4g#	.	.
8D#J 8d#	.	.	8ff#X	.
4D# 4d#	4G#	4g#	8a#L	.
.	.	.	8bJ	.
*v	*v	*	*	*
=114	=114	=114	=114
4r	8r	2ee	.
.	4cc#	.	.
4C##X 4G# 4c##X	.	.	.
.	8b	.	.
4D# 4B 4d#	8f##XL	4dd#	.
.	8g#J	.	.
!!LO:LB:g=original
=115	=115	=115	=115
4GGG# 4GG#	4r	8r	.
.	.	4ee	.
4F# 4B#X 4f#	4g#	.	.
.	.	8dd#	.
4E 4c# 4e	4r	8f##XL	.
.	.	8g#J	.
=116	=116	=116	=116
4r	8r	2cc#	.
.	4a#	.	.
*^	*	*	*
4.E 4.e	4c#	.	.	.
.	.	8g#	.	.
.	4G#	8c##XL	4bn	.
8D# 8d#	.	8d#J	.	.
*v	*v	*	*	*
=117	=117	=117	=117
4CC#X 4C#X	4f#	8r	.
.	.	8g#	.
2C# 2B	4e	12g#L	.
.	.	12a#	.
.	.	12g#J	.
.	4r	8f##XL	.
.	.	8g#J	.
*	*v	*v	*
=118	=118	=118
4C#	8.eeL	.
.	16dd#Jk	.
4B 4g#	4.ff#X	.
4r	.	.
.	8ee	.
=119	=119	=119
4r	4.dd#	.
*^	*	*
2C# 2B	4f#	.	.
.	.	8g#	.
.	4e	8b#XL	.
.	.	8cc#J	.
=120	=120	=120	=120
2C#	4r	2dd#	.
.	4F# 4A# 4f#	.	.
4Cn	4F##X 4A# 4f##X	4ee	.
*v	*v	*	*
!!LO:LB:g=original
=121	=121	=121
*	*^	*
4BBB 4BB	4r	8r	ff
.	.	4ee	.
4G# 4B 4g#	2e	.	.
.	.	8dd#	.
4B	.	8f##XL	.
.	.	8g#J	.
=122	=122	=122	=122
4r	8r	2cc#	.
.	4f#X	.	.
*^	*	*	*
4BB	4A#	.	.	.
.	.	8e	.	.
4BB	4B	8F##XL	4b	.
.	.	8G#J	.	.
=123	=123	=123	=123	=123
*	*^	*	*	*
4rFF	2An/	4re	4r	8r	.
.	.	.	.	4ddn	.
2BB\	.	4f#X	4dn	.	.
.	.	.	.	8cc#	.
.	.	.	.	8qdd	.
.	4ryy	4G# 4e#X	4d	8cc#L	.
.	.	.	.	8bJ	.
=124	=124	=124	=124	=124	=124
4rFF	4An/	8f#	4c#	8anL	.
.	.	8r	.	8g#	.
*	*v	*v	*	*	*
8BBL	8AL	8c#L	8g#	.
8BBJ	8AJ	8c#J	8f#J	.
4BB	4A	4c#	4f#	.
*v	*v	*	*	*
=125	=125	=125	=125
4BBB 4BB	2.r	8r	.
.	.	4aan	.
4An 4c# 4an	.	.	.
.	.	8gg#	.
4A 4f# 4a	.	8b#XL	.
.	.	8cc#J	.
!!LO:LB:g=original
=126	=126	=126	=126
4r	8r	2ff#	.
.	4dd#	.	.
4An 4f# 4an	.	.	.
.	8cc#	.	.
4A 4c# 4a	8e#XL	4een	.
.	8f#J	.	.
=127	=127	=127	=127
4BBB 4BB	2.r	8r	.
.	.	4aan	.
4An 4cn 4an	.	.	.
.	.	8ggn	.
4A 4fn 4a	.	8bL	.
.	.	8ccnJ	.
=128	=128	=128	=128
4r	8r	2ffn	.
.	4ddn	.	.
4A# 4fn 4a#	.	.	.
.	8ccn	.	.
4A# 4cn 4a#	8eL	4ee	.
.	8fnJ	.	.
*	*v	*v	*
*kcancel	*kcancel	*
=129||	=129||	=129||
*k[f#c#g#d#]	*k[f#c#g#d#]	*
*	*^	*
4BB 4B	8f#X	8dd#X	sf
*	*v	*v	*
.	8ccc#XL	.
4A 4B 4d# 4a	8ee#X	.
.	8ff#	.
4r	8aa	.
.	8gg#J	.
=130	=130	=130
2.r	8bbL	.
.	8aa	.
.	8b#X	.
.	8cc#	.
.	8ff#	.
.	8ee#XJ	.
!!LO:LB:g=original
=131	=131	=131
2.r	8gg#L	.
.	8ff#	.
.	8g#	.
.	8a	.
.	8cc#	.
.	8b#XJ	.
=132	=132	=132
2.r	8dd#L	.
.	8cc#	.
.	8e#X	.
.	8f#	.
.	8bn	>
.	8aJ	.
=133	=133	=133
2.r	8dd#L	.
.	8cc#	.
.	8e#X	.
.	8f#	.
.	8b	.
.	8aJ	.
=134	=134	=134
2.r	8dd#L	.
.	8cc#	.
.	8e#X	.
.	8f#	.
.	8b	.
.	8aJ	.
=135	=135	=135
2.r	8dd#L	.
.	8cc#	.
.	8e#X	.
.	8f#	.
.	8b	.
.	8aJ	.
=136	=136	=136
*^	*^	*
2C#	2.A	2.en	8g#L	.
.	.	.	8f#	.
.	.	.	8e#X	.
.	.	.	8f#	.
4Cn	.	.	8g#	.
.	.	.	8f#J	.
*	*	*v	*v	*
!!LO:LB:g=original
=137||	=137||	=137||	=137||
[2.BB	4r	8r	p
.	.	8B	.
*	*	*^	*
.	4r	[2en	8eL	.
.	.	.	8f#J	.
.	[4A	.	8cc#L	.
.	.	.	16r	.
.	.	.	16g#Jk	.
=138	=138	=138	=138	=138
2BB]	4A]	4e]	4b	.
.	[2A	8r	8c#L	.
.	.	[4.d#	8d#	.
4BB	.	.	8g#	.
.	.	.	8f#J	.
=139	=139	=139	=139	=139
2C#	4A]	8d#L]	8f#L	.
.	.	8eJ	8eJ	<
.	4G#	4e	4.b	(
4GG#	4E	4B	.	(
.	.	.	8d#	[
=140	=140	=140	=140	=140
4r	[2.E	2.B	2d#	>
4GG#	.	.	.	)
4GGn	.	.	[4c#	]
=141	=141	=141	=141	=141
4FF#	4E]	4r	8c#L]	.
.	.	.	8f#	.
4rAA	4rA	[2b	8b	.
.	.	.	8cc#J	.
[4F#	[4e	.	8gg#L	.
.	.	.	16r	.
.	.	.	16dd#Jk	.
=142	=142	=142	=142	=142
2F#]	4e]	4b]	4ff#	.
.	[2e	8r	8g#L	.
.	.	[4.a#	8a#X	.
4F#	.	.	8dd#	.
.	.	.	8cc#J	.
!!LO:LB:g=original
=143	=143	=143	=143	=143
2G#	4e]	8a#L]	8cc#L	.
.	.	8bJ	8bJ	<
.	4d#	4b	4.ff#	(
4D#	4B	4f#	.	(
.	.	.	8a#X	[
=144	=144	=144	=144	=144
4r	2.B	2.f#	2a#X	>
4D#	.	.	.	)
4Dn	.	.	[4g#	]
*	*	*v	*v	*
=145	=145	=145	=145
*	*^	*	*
2.C#\	8BL	2f#	8g#L]	.
.	8A#XJ	.	8a#X	.
.	4G#	.	8b	.
.	.	.	8dd#J	<
.	4B	4e	12eeL	(
.	.	.	12aa#X	(
.	.	.	12gg#J	[
=146	=146	=146	=146	=146
2.F#\	4B	2.e	8ff#L	>
.	.	.	8b	)
.	4A#X	.	8dd#	)
.	.	.	8cc#	)
.	4An	.	8g#	]
.	.	.	[8f#J	.
=147	=147	=147	=147	=147
2.BB\	8AL	2e	8f#L]	.
.	8G#J	.	8g#	.
.	4F#	.	8a	.
.	.	.	8cc#J	.
.	4A	4dn	12ddnL	<
.	.	.	12gg#	(
.	.	.	12ff#J	[
!!LO:LB:g=original
=148	=148	=148	=148	=148
2.E\	4A	2.dn	8eeL	<
.	.	.	8a	.
.	4G#	.	8cc#	.
.	.	.	8e	.
.	8F##XL	.	8b	.
.	8G#J	.	8b#XJ	.
=149	=149	=149	=149	=149
2.AA\	16%3G#	4.c#	[2.cc#	mf
.	16%3A	.	.	.
.	16%3G#	4.e	.	.
.	16%3Gn	.	.	.
=150	=150	=150	=150	=150
4rFF	2.F#	4rc	8cc#L]	>
.	.	.	8e	.
4rFF	.	2e	8f#	.
.	.	.	8cc#	.
4AA#X\	.	.	8ff#	.
.	.	.	8dd#J	.
*	*v	*v	*	*
=151	=151	=151	=151
2.BB 2.An	2e	8cc#L	.
.	.	8b	.
.	.	8ee	.
.	.	8ff#	.
.	4d#	8bb	.
.	.	8gg#J	.
=152	=152	=152	=152
*	*^	*	*
2.BB\	2G#/	4B	8ff#L	.
.	.	.	8ee	.
.	.	2e	8cc#	>
.	.	.	8b	)
.	4B/	.	8g#	)
.	.	.	8aJ	]
*	*v	*v	*	*
*v	*v	*	*
=153	=153	=153
4EE	8r	pp
.	8b	.
4BB	8eeL	.
.	8ff#J	.
4A 4e 4a	8ccc#L	.
.	16r	.
.	16gg#Jk	.
!!LO:LB:g=original
=154	=154	=154
4r	4bb	.
4BB	8cc#L	.
.	8dd#J	.
4A 4d# 4a	8.gg#L	<
.	16ff#Jk	.
=155	=155	=155
4BB	8ff#L	.
.	8eeJ	.
4G# 4e 4g#	4.bb	.
4G# 4B 4g#	.	.
.	8dd#	.
=156	=156	=156
4BB	2dd#	>
4Gn 4B 4e 4gn	.	)
8G 8A#X 8e 8g	4cc#	]
8r	.	.
=157	=157	=157
*^	*^	*
*	*^	*	*	*
4rCC	4rAA	2.An	4rc	8r	p
.	.	.	.	8b	.
4rCC	2BB/	.	2B	4.e	.
4EE\	.	.	.	.	.
.	.	.	.	8f#	.
=158	=158	=158	=158	=158	=158
4rCC	4rAA	2G#	4rc	8r	.
.	.	.	.	8b	.
4rCC	2BB/	.	2d#	4.g#	.
4EE\	.	4F#	.	.	.
.	.	.	.	8a	.
*	*v	*v	*	*	*
=159	=159	=159	=159	=159
4r	2G#	12r	12cc#L	.
.	.	[6d#	12d#	.
.	.	.	12f#J	.
2BB	.	2d#_	8cc#L	.
.	.	.	8b	.
.	4A	.	8e#X	.
.	.	.	8f#J	.
!!LO:LB:g=original
=160	=160	=160	=160	=160
4r	2c#	2d#]	2a	>
2BB	.	.	.	)
.	4B	4en	4g#	]
*	*	*v	*v	*
*v	*v	*	*
=161	=161	=161
4EE	8r	pp
.	8b	.
4BB	8eeL	.
.	8ff#J	.
[4A [4e [4a	8ccc#L	.
.	16r	.
.	16gg#Jk	.
=162	=162	=162
4A] 4e] 4a]	4bb	.
4BB	8cc#L	.
.	8dd#	.
4A 4d# 4a	8gg#	.
.	8ff#J	.
=163	=163	=163
4BB	8ff#L	.
.	8eeJ	.
4G# 4e 4g#	4.bb	.
4G# 4B 4g#	.	.
.	8dd#	.
=164	=164	=164
4BB	2dd#	.
4Gn 4B 4e 4gn	.	.
4G 4A#X 4e 4g	4cc#	.
=165	=165	=165
*^	*^	*
*	*^	*	*	*
4rCC	4rAA	2.An	4rc	8r	p
.	.	.	.	8b	.
4rCC	2BB/	.	2B	4.e	.
4EE\	.	.	.	.	.
.	.	.	.	8f#	.
!!LO:LB:g=original
=166	=166	=166	=166	=166	=166
4rCC	4rAA	2G#	4rc	8r	.
.	.	.	.	8b	.
4rCC	2BB/	.	2d#	4.g#	.
4EE\	.	4F#	.	.	.
.	.	.	.	8a	.
*	*v	*v	*	*	*
=167	=167	=167	=167	=167
4r	2G#	12r	12cc#L	.
.	.	[6d#	12d#	.
.	.	.	12f#J	.
2BB	.	2d#_	8cc#L	.
.	.	.	8b	.
.	4A	.	8e#X	.
.	.	.	8f#J	.
=168	=168	=168	=168	=168
4r	2c#	2d#]	2a	.
2BB	.	.	.	.
.	4B	4en	4g#	.
=169	=169	=169	=169	=169
2.EE 2.BB	2.A	12r	12cc#L	mf
.	.	[6d#	12d#	.
.	.	.	12f#J	.
.	.	2d#]	8cc#L	.
.	.	.	8b	.
.	.	.	8e#X	.
.	.	.	8f#J	.
=170	=170	=170	=170	=170
2.EE 2.BB	2F#	2.d#	2a	.
.	4G#	.	4g#	.
*	*	*v	*v	*
*v	*v	*	*
=171	=171	=171
2.EEE 2.EE 2.BB 2.G#	2.e 2.g#	.
==	==	==
*-	*-	*-
!!!system-decoration: {(*)}
!!!filter: flipper -a
!!!RDF**dynam: > = dim.
!!!ENC: Bryan Jacob Bell
!!!END: November 2021 to April 2022
!!!PED: Günter Philipp
!!!PTL: Ausgewählte Klavierwerke (Edition Peters)
!!!URL-pdf: https://github.com/bel28kent/Mysterium/blob/main/reference_editions/op25.pdf
